X: 42444
T: Western, The
R: reel
M: 4/4
K: Amixolydian
|:ABcd eA A/A/A|ABcd eagc|d2 fd gBdB|BAeA fAe^g|
aA A/A/A ABcA|ABcd eagc|d2 fd gBdB|1 BAeA A3 E:|2 BAeA A2 cd||
|:ea ~a2 eA B/c/d|BGdB gBcd|ea ~a2 efga|ecdB ABcd|
ea ~a2 eA B/c/d|BGdB gBdB|BAeA fAed|1 cAeA A2 cd:|2 cAeA A3 E||

